X:1
T:The Soul’s Bright Land Above
T:The Soul’s Bright Land Above
T:William Howard Doane
T:Frances Jane (Fanny) Crosby, 1886
T:Public Domain Courtesy of the Cyber Hymnal™
C:William Howard Doane
Z:Public Domain
Z:Courtesy of the Cyber Hymnal™
%%score ( 1 2 ) ( 3 4 )
L:1/8
Q:1/4=105
M:4/4
K:Ab
V:1 treble 
V:2 treble 
V:3 bass 
V:4 bass 
V:1
 [CE]2 | [CE]3 [DF] [CE]2 [Ec]2 | (BA) ([EG][DF]) [CE]2 [CE]2 | [DF]2 [DA]2 [CE]2 [Ec]2 | %4
w: 1.~There|is a land where|shines * the * light Of|God’s e- ter- nal|
w: 2.~There|Christ the Lord tri-|umph- * ant * reigns, And|saints be- fore Him|
w: 3.~There|tears are wiped from|ev- * ery * eye, And|ev- ery pain is|
w: 4.~Tho’|faith may soar a-|bove * the * clouds To|reach that land so|
 (B2 c2 !fermata!d2) [DE]2 | [CE]3 [DF] [CE]2 [Ec]2 | %6
w: love, * * The|sac- red realm of|
w: fall; * * They|shout a- loud re-|
w: o’er; * * And|hearts that here in|
w: fair, * * Yet|who can tell the|
 (BA) ([EG]"^riten."[DF]) !fermata![FA]3 [DF] | [CE]2 [EA]2 [EG]2 !fermata![DB]2 | [CA]6 || %9
w: ho- * ly * joy, The|soul’s bright land a-|bove.|
w: deem- * ing * grace, And|hail Him Lord of|all.|
w: sor- * row * bled Shall|feel its throb no|more.|
w: pure * de- * light Of|those who en- ter|there?|
"^Refrain" [CA]>[DB] | [Ec]3 [DB] [CA]3 [EA] | [FA]3 [EG] [DF]3 [DF] | %12
w: |||
w: |||
w: O that|love- ly land, the|sum- mer land, The|
w: |||
 [CE]2 ([CE]>[DF]) [CE]2 [EA]2 | [EB]2 [Ec]2 !fermata![Ed]2 [Ec]>[EB] | %14
w: ||
w: ||
w: land be- * yond the|Jor- dan’s strand; O that|
w: ||
 [Ec]>[Ec] [Ec]>[DB] [CA]2 [EA]2 | [FA]>[FA] [FA]>[EG] [DF]3 [DF] | %16
w: ||
w: ||
w: love- ly, love- ly land, The|gold- en sum- mer land, The|
w: ||
 [CE]2 [EA]2 [EG]2 !fermata![EB]2 | [EA]6 |] %18
w: ||
w: ||
w: soul’s bright land a-|bove.|
w: ||
V:2
 x2 | x8 | F2 x6 | x8 | E6 x2 | x8 | F2 x6 | x8 | x6 || x2 | x8 | x8 | x8 | x8 | x8 | x8 | x8 | %17
 x6 |] %18
V:3
 [A,,A,]2 | [A,,A,]3 [A,,A,] [A,,A,]2 [A,,A,]2 | [D,A,]2 [D,A,]2 [A,,A,]2 [A,,A,]2 | %3
 [D,A,]2 [F,A,]2 A,2 [A,,A,]2 | (G,2 A,2 !fermata!B,2) [E,G,]2 | %5
 [A,,A,]3 [A,,A,] [A,,A,]2 [A,,A,]2 | [D,A,]2 [D,A,]2 !fermata![D,D]3 [D,A,] | %7
 [E,A,]2 [E,C]2 [E,B,]2 !fermata![E,G,]2 | [A,,A,]6 || [A,,A,]>[A,,A,] | %10
 [A,,A,]>[A,,A,] [A,,A,]>[A,,A,] [A,,A,]3 [C,A,] | [D,A,]>[D,D] [D,D]>[D,A,] [D,A,]3 [D,A,] | %12
 [A,,A,]2 [A,,A,]2 [A,,A,]2 [C,A,]2 | [E,G,]2 [E,A,]2 !fermata![E,B,]2 [E,A,]>[E,G,] | %14
 [A,,A,]>[A,,A,] [A,,A,]>[A,,A,] [A,,A,]2 [C,A,]2 | [D,A,]>[D,D] [D,D]>[D,A,] [D,A,]3 [D,A,] | %16
 [E,A,]2 [E,C]2 [E,B,]2 !fermata![E,D]2 | [A,,C]6 |] %18
V:4
 x2 | x8 | x8 | x4 A,2 x2 | E,6 x2 | x8 | x8 | x8 | x6 || x2 | x8 | x8 | x8 | x8 | x8 | x8 | x8 | %17
 x6 |] %18

